X: 40750
T: Touch Me If You Dare
R: reel
M: 4/4
K: Gmajor
B ~G3 AGEG|B~G3 Bdgd|~B3G AGED|EAAG A2 GA|
B~G3 AGEG|B~G3 Bdgd|~B3G AGED|EGFA G3 A:|
dega bgag|egdg egdB|dega bgag|eaag a2 ge|
dega bgag|egdg egdc|~B3G AGED|EGGF G3 A:|

